X: 1
T: Catherine Elise
C: David A Kaynor 2019
%D:2019
B: David A. Kaynor "Living Music and Dance" 2021
Z: 2022 John Chambers <jc:trillian.mit.edu>
M: 3/4
L: 1/8
Q: "Waltz"
K: G
Bc |\
"G"d3c Bd | "D"c3 B AF | "G"G2 D3 C | B,4 A,B, |
"C"C3D EG | "G"D2 d4 |[1 c3 B GA | "D7"A4 :|[2 "Am"c3 B "D"AF | "G"G4 ||
|: GF |\
"Em"E2 B,2 GF | E2 B,2 GF | EB, EF GA | B4 AB |
"Am"c2 E2 Bc | "Em"B2 E2 FG |[1 "Am"A3 B AG | "B7"F4 :|[1 "B7"F4 FG | "Em"E4 ||
|: "D"DC |\
"G"B,D D2 GA | B4 DB, | "Am"CE E2 AB | c4 cd |
"C"e2 g2 "D"gf | "G"g2 G4 |[1 "Am"c3 B GA | "D"A4 :| "Am"A3 B "D"AF | "G"G4 |]
